astro/public/img/icons/authentication.svg

<?xml version="1.0" encoding="UTF-8"?>
<svg width="70px" height="70px" viewBox="0 0 70 70" version="1.1" xmlns="http://www.w3.org/2000/svg" xmlns:xlink="http://www.w3.org/1999/xlink">
    <title>authentication</title>
    <defs>
        <linearGradient x1="15.5127837%" y1="0%" x2="84.4872163%" y2="100%" id="linearGradient-1">
            <stop stop-color="#A4AEBE" offset="0%"></stop>
            <stop stop-color="#2D53F5" offset="100%"></stop>
        </linearGradient>
    </defs>
    <g id="authentication" stroke="none" stroke-width="1" fill="none" fill-rule="evenodd">
        <path d="M58.7867601,13.0158145 L35.9894733,6.07294336 C35.6706119,5.97568555 35.3301827,5.97568555 35.0109808,6.07294336 L12.213467,13.0158145 C11.4932193,13.2351055 11,13.9080742 11,14.6713867 L11,40.1285039 C11,43.4396484 12.3203973,46.8291523 14.9245269,50.2028691 C16.913523,52.7795098 19.6651076,55.3668672 23.1029991,57.8931504 C28.8782618,62.137002 34.5650969,64.740377 34.8043849,64.849043 C35.0257376,64.9496426 35.2628688,65 35.5001135,65 C35.7372447,65 35.9744894,64.9497578 36.1958421,64.849043 C36.4351301,64.740377 42.1218517,62.137002 47.8971144,57.8931504 C51.3348924,55.3668672 54.086477,52.7795098 56.075473,50.2028691 C58.6796026,46.8292676 60,43.4397637 60,40.1285039 L60,14.6713867 C60,13.9080742 59.5070077,13.2351055 58.7867601,13.0158145 Z M56.5946871,40.1285039 C56.5946871,45.9884023 50.8028513,51.4830078 45.9441023,55.0606895 C41.5881079,58.2680078 37.1704752,60.5438867 35.500227,61.3614746 C33.8299789,60.5438867 29.4122327,58.2680078 25.0562382,55.0606895 C20.1973757,51.4830078 14.4054264,45.9884023 14.4054264,40.1285039 L14.4054264,15.9574023 L35.5001135,9.53308594 L56.5946871,15.9574023 L56.5946871,40.1285039 Z" id="Shape" fill="url(#linearGradient-1)" fill-rule="nonzero"></path>
    </g>
</svg>

<svg xmlns="http://www.w3.org/2000/svg" width="70" height="70"><defs><linearGradient id="a" x1="15.513%" x2="84.487%" y1="0%" y2="100%"><stop offset="0%" stop-color="#A4AEBE"/><stop offset="100%" stop-color="#2D53F5"/></linearGradient></defs><path fill="url(#a)" d="M58.787 13.016 35.989 6.073a1.677 1.677 0 0 0-.978 0l-22.798 6.943c-.72.22-1.213.892-1.213 1.655V40.13c0 3.31 1.32 6.7 3.925 10.074 1.989 2.577 4.74 5.164 8.178 7.69 5.775 4.244 11.462 6.847 11.701 6.956a1.68 1.68 0 0 0 1.392 0c.24-.109 5.926-2.712 11.701-6.956 3.438-2.526 6.19-5.113 8.178-7.69C58.68 46.829 60 43.44 60 40.129V14.67c0-.763-.493-1.436-1.213-1.655Zm-2.192 27.113c0 5.86-5.792 11.354-10.65 14.932-4.357 3.207-8.775 5.483-10.445 6.3-1.67-.817-6.088-3.093-10.444-6.3-4.859-3.578-10.65-9.073-10.65-14.932V15.957L35.5 9.533l21.095 6.424V40.13Z"/></svg>
